X:1
T:Go While It Is Morning
T:Go While It Is Morning
T:Louise M. Anderson
T:Louise M. Anderson, 1893
T:Public Domain Courtesy of the Cyber Hymnal™
C:Louise M. Anderson
Z:Public Domain
Z:Courtesy of the Cyber Hymnal™
%%score ( 1 2 ) ( 3 4 )
L:1/8
Q:1/4=90
M:2/4
K:E
V:1 treble 
V:2 treble 
V:3 bass 
V:4 bass 
V:1
 E | [EG][EG] [EG] [FA]2 [Ad] | [Ac]3 [GB]2 [EG] | [EB][EB] [EB][EB][DA][EG] | %4
w: 1.~Oh,|what have you done for|Je- sus, And|what are you do- ing to-|
w: 2.~Oh,|what have you done for|Je- sus, And|what are you do- ing to-|
w: 3.~Oh,|what have you done for|Je- sus, And|what are you do- ing to-|
 [DF]3- [DF]2 [EB]/[EB]/ | [Ec][Ec] [Ed][Ee][Ed][Ec] | [EB]3 [EG]2 [EB]/[EB]/ | %7
w: day? * In the|morn- ing, at noon- tide, at|ev- en Are you|
w: day? * Are you|reap- ing the rich, gold- en|har- vest O- r|
w: day? * Are you|safe in the field as a|glean- er, O- h,|
 [DB][DB] [DB] (BA)[DF] | E3- E2 ||"^Refrain" [GB] | [Ac][FA] [Ac][ce][Bd][Ac] | [GB]3 [EG]2 [GB] | %12
w: wast- ing your time * a-|way? *|Be|rea- dy, go while it is|morn- ing, The|
w: bear- ing the sheaves * a-|way? *||||
w: what are you do- * ing,|pray? *||||
 [GB][FA] [EG][DF][EG][FA] | [Ac][GB] [FA] [EG]2 [GB] | [Ac][FA] [Ac][ce][Bd][Ac] | %15
w: Mas- ter is call- ing: there’s|plen- ty to do; The|bright gold- en fields are now|
w: |||
w: |||
 [GB]3 [EG]2!f! [EB] | !fermata![DB]2!p! E[B,D][B,E][B,F] | [B,E]3- [B,E]2 |] %18
w: wait- ing, But|Oh, the lab’r- ers are|few! *|
w: |||
w: |||
V:2
 E | x6 | x6 | x6 | x6 | x6 | x6 | x3 D2 x | E3- E2 || x | x6 | x6 | x6 | x6 | x6 | x6 | x2 E x3 | %17
 x5 |] %18
V:3
 [E,G,] | [E,B,][E,B,] [E,B,] [B,,B,]2 [B,,B,] | [E,A,]3 [E,B,]2 [E,B,] | %3
w: ~|~ ~ ~ ~ ~|~ ~ ~|
 [E,G,][E,G,] [E,G,][G,B,][F,B,][E,B,] | [B,,B,]3- [B,,B,]2 [E,G,]/[E,G,]/ | %5
w: ~ ~ ~ ~ ~ ~|~ * ~ ~|
 [A,,A,][A,,A,] [A,,B,][A,,C][A,,B,][C,A,] | [E,G,]3 [E,B,]2 [E,G,]/[E,G,]/ | %7
w: ~ ~ ~ ~ ~ ~|~ ~ ~ ~|
 [B,,F,][B,,F,] [B,,F,] [B,,F,]2 [B,,A,] | [E,G,]3- [E,G,]2 || [E,B,] | A,3 A,2 A, | %11
w: ~ ~ ~ ~ ~|~ *|Be|rea- dy, go|
 [E,B,][E,B,] [E,B,][E,B,][E,B,][E,B,] | [B,,B,][B,,B,] [B,,B,][B,,B,][B,,B,][B,,B,] | %13
w: while it is morn- ing, ~|~ ~ ~ ~ ~ ~|
 [E,B,][E,B,] [E,B,] [E,B,]2 [E,B,] | A,3 A,2 A, | [E,B,][E,B,] [E,B,][E,B,][E,B,][E,G,] | %16
w: ~ ~ ~ ~ ~|bright gold- en|fields are now wait- ing *|
 !fermata![B,,F,]2 [B,,G,][B,,F,][B,,G,][B,,A,] | [E,G,]3- [E,G,]2 |] %18
w: ||
V:4
 x | x6 | x6 | x6 | x6 | x6 | x6 | x6 | x5 || x | A,3 A,2 A, | x6 | x6 | x6 | A,3 A,2 A, | x6 | %16
 x6 | x5 |] %18

